src/icons/aws-s3.svg

<?xml version="1.0" encoding="UTF-8"?>
<svg xmlns="http://www.w3.org/2000/svg" xmlns:xlink="http://www.w3.org/1999/xlink" width="32" height="32" viewBox="0 0 32 32" version="1.1">
<defs>
<linearGradient id="linear0" gradientUnits="userSpaceOnUse" x1="0" y1="1" x2="1" y2="0" gradientTransform="matrix(32,0,0,32,0,0)">
<stop offset="0" style="stop-color:rgb(10.588235%,40.000001%,5.882353%);stop-opacity:1;"/>
<stop offset="1" style="stop-color:rgb(42.352942%,68.235296%,24.313726%);stop-opacity:1;"/>
</linearGradient>
</defs>
<g id="surface1">
<rect x="0" y="0" width="32" height="32" style="fill:url(#linear0);stroke:none;"/>
<path style=" stroke:none;fill-rule:evenodd;fill:rgb(100%,100%,100%);fill-opacity:1;" d="M 23.878906 16.972656 L 23.996094 16.066406 C 25.082031 16.691406 25.421875 17.0625 25.519531 17.210938 C 25.355469 17.242188 24.914062 17.253906 23.878906 16.972656 Z M 15.25 10.5 C 10.0625 10.5 6.691406 9.242188 6.5 8.347656 L 6.5 8.253906 C 6.675781 7.695312 9.570312 6 15.25 6 C 20.917969 6 23.816406 7.691406 24 8.253906 L 24 8.308594 C 23.863281 9.222656 20.480469 10.5 15.25 10.5 Z M 22.910156 16.679688 C 20.527344 15.898438 17.457031 14.488281 16.296875 13.945312 C 16.265625 13.394531 15.8125 12.953125 15.257812 12.953125 C 14.679688 12.953125 14.207031 13.421875 14.207031 14 C 14.207031 14.578125 14.679688 15.046875 15.257812 15.046875 C 15.484375 15.046875 15.695312 14.972656 15.867188 14.847656 C 17.066406 15.410156 20.308594 16.898438 22.777344 17.691406 L 21.917969 24.363281 C 21.792969 25.175781 19.460938 26 15.25 26 C 11.035156 26 8.703125 25.175781 8.578125 24.375 L 6.71875 9.90625 C 8.472656 10.957031 11.875 11.5 15.25 11.5 C 18.625 11.5 22.027344 10.957031 23.78125 9.90625 Z M 25 8.25 C 25 6.714844 20.832031 5 15.25 5 C 9.667969 5 5.5 6.714844 5.5 8.25 L 5.5 8.523438 L 7.585938 24.515625 C 7.9375 26.757812 13.0625 27 15.25 27 C 17.433594 27 22.554688 26.757812 22.910156 24.503906 L 23.75 17.972656 C 24.390625 18.140625 24.90625 18.226562 25.308594 18.226562 C 25.804688 18.226562 26.136719 18.101562 26.347656 17.847656 C 26.523438 17.640625 26.59375 17.378906 26.542969 17.109375 C 26.429688 16.5 25.703125 15.855469 24.183594 15.023438 L 24.136719 14.996094 L 25 8.523438 Z M 25 8.25 "/>
</g>
</svg>

<svg role="img" viewBox="0 0 32 32" xmlns="http://www.w3.org/2000/svg" xmlns:xlink="http://www.w3.org/1999/xlink"><defs><linearGradient gradientTransform="scale(32)" gradientUnits="userSpaceOnUse" id="a" x1="0" x2="1" y1="1" y2="0"><stop offset="0" style="stop-color:rgb(10.588235%,40.000001%,5.882353%);stop-opacity:1"/><stop offset="1" style="stop-color:rgb(42.352942%,68.235296%,24.313726%);stop-opacity:1"/></linearGradient></defs><path d="M0 0h32v32H0z" style="fill:url(#a);stroke:none"/><path d="m23.879 16.973.117-.907c1.086.625 1.426.997 1.524 1.145-.165.031-.606.043-1.641-.238M15.25 10.5c-5.187 0-8.559-1.258-8.75-2.152v-.094C6.676 7.695 9.57 6 15.25 6c5.668 0 8.566 1.691 8.75 2.254v.055c-.137.914-3.52 2.191-8.75 2.191m7.66 6.18c-2.383-.782-5.453-2.192-6.613-2.735a1.048 1.048 0 0 0-1.04-.992A1.05 1.05 0 0 0 14.208 14a1.05 1.05 0 0 0 1.05 1.047c.227 0 .438-.074.61-.2 1.2.563 4.442 2.051 6.91 2.844l-.859 6.672C21.793 25.176 19.461 26 15.25 26c-4.215 0-6.547-.824-6.672-1.625L6.718 9.906c1.755 1.051 5.157 1.594 8.532 1.594s6.777-.543 8.531-1.594ZM25 8.25C25 6.715 20.832 5 15.25 5S5.5 6.715 5.5 8.25v.273l2.086 15.993C7.937 26.758 13.063 27 15.25 27c2.184 0 7.305-.242 7.66-2.496l.84-6.531c.64.168 1.156.254 1.559.254.496 0 .828-.125 1.039-.38a.871.871 0 0 0 .195-.738c-.113-.609-.84-1.254-2.36-2.086l-.046-.027L25 8.523Zm0 0" style="stroke:none;fill-rule:evenodd;fill:rgb(100%,100%,100%);fill-opacity:1"/></svg>
